X:5911
T:Gan ainm
R:Jig
S:(Arty McGlynn/Maire Ni Chasathaigh)
H:
N:
D:
Z:Adrian Scahill
M:6/8
L:1/8
K:G
BAB GBd|cBc EAG|FED AFD|GBG D2c|\
BAB GBd|cBc E2G|FED AFD|GAG G3:||\
ded dBd|gfg d2g|fef A2B|cBc ABc|\
ded dBd|gfg d2g|fed cAF|GAG G3:||
